!!!!SEGMENT: pl-cz--iii-115--001-002_dankowski-adalbert--missa-es-gloria.krn
!!!cenid: 18xx:823
!!!COM: Dankowski, Adalbert
!!!COM-rismID: pe30000793
!!!CDT: ~1760-~1836
!!!CNT: Polish
!!!OPR: Missa Es
!!!OTL: Gloria
!!!OMV: 002
!!!PDT: 1802
!!!AGN: Sacred; Vespers
!!!SMS-siglum: PL-CZ
!!!SMS-shelfmark: III-115
!!!SMS-shelfwork: 001-002 M
!!!SMS-variant:
!!!SMS-altvar:
!!!NIFC-rismSourceID: 300000112
!!!NIFC-rismChildID: 300000112
!!!NIFC-islandoraID: pl-cz:34553
!!!URL-pdf-islandora: https://repozytorium.nifc.pl/islandora/object/pl-cz%3A34553/datastream/PDF/view
!!!URL-scan: https://polish.musicsources.pl/pl/lokalizacje/galeria/rekopisy/6832/1 @EN{Scan on Polish Music Sources Website} @PL{Skany w portalu Dziedzictwo Muzyki Polskiej w otwartym dostępie}
!!!IIIF:
!!!ONB-nifc: UWAGA: części Mszy: Kyrie, Gloria, Credo, Sanctus, Benedictus, Agnus Dei. Uwaga: brak partii cor 1 i 2
!!!AIN: 1 alto 1 bass 2 clars 1 organ 1 tenor 2 violn
!!!key: E-
**kern	**fba	**dynam	**kern	**dynam	**kern	**dynam	**kern	**text	**kern	**text	**kern	**text	**kern	**text	**kern	**kern
*group4	*	*	*group3	*	*group3	*	*group2	*	*group2	*	*group2	*	*group2	*	*group1	*group1
*part9	*	*part9	*part8	*part8	*part7	*part7	*part6	*part6	*part5	*part5	*part4	*part4	*part3	*part3	*part2	*part1
*staff9	*	*	*staff8	*	*staff7	*	*staff6	*staff6	*staff5	*staff5	*staff4	*staff4	*staff3	*staff3	*staff2	*staff1
*I"Organo	*	*	*I"Violino ſecundo.	*	*I"Violino Primo.	*	*I"Basso	*	*I"Tenore	*	*I"Alto	*	*I"Canto	*	*I"Clarinetto ſecundo in B.	*I"Clarinetto Primo in B:
*I'[Org]	*	*	*I'[Vl 2]	*	*I'[Vl 1]	*	*I'[B]	*	*I'[T]	*	*I'[A]	*	*I'[S]	*	*I'[Cl 2 in B]	*I'[Cl 1 in B]
*Iorgan	*	*	*Ivioln	*	*Ivioln	*	*Ibass	*	*Itenor	*	*Ialto	*	*	*	*Iclars	*Iclars
*ICklav	*	*	*ICstr	*	*ICstr	*	*ICvox	*	*ICvox	*	*ICvox	*	*	*	*ICww	*ICww
*IGcont	*	*	*IGacmp	*	*IGacmp	*	*IGcoro	*	*IGcoro	*	*IGcoro	*	*	*	*IGacmp	*IGacmp
*clefF4	*	*	*clefG2	*	*clefG2	*	*clefF4	*	*clefC4	*	*clefC3	*	*clefC1	*	*clefG2	*clefG2
*	*	*	*	*	*	*	*	*	*	*	*	*	*	*	*ITrd1c2	*ITrd1c2
*k[b-e-a-]	*	*	*k[b-e-a-]	*	*k[b-e-a-]	*	*k[b-e-a-]	*	*k[b-e-a-]	*	*k[b-e-a-]	*	*k[b-e-a-]	*	*k[b-e-a-]	*k[b-e-a-]
*E-:	*	*	*E-:	*	*E-:	*	*E-:	*	*E-:	*	*E-:	*	*E-:	*	*E-:	*E-:
*M3/4	*	*	*M3/4	*	*M3/4	*	*M3/4	*	*M3/4	*	*M3/4	*	*M3/4	*	*M3/4	*M3/4
=1	=1	=1	=1	=1	=1	=1	=1	=1	=1	=1	=1	=1	=1	=1	=1	=1
!!LO:TX:t=P:problem:w źródle w partiach wokalnych występują liczne nieścisłości związane z tekstem słownym - pojawiają się fragmenty w których nut jest za mało w stosunku do sylab tekstu słownego oraz odwrotnie
!	!	!	!	!	!	!	!LO:TX:a:t=P:problem=złe i niezrozumiałe podpisanie tekstu w źródle	!	!LO:TX:a:t=P:problem=złe i niezrozumiałe podpisanie tekstu w źródle	!	!	!	!LO:TX:a:t=P:problem=złe i niezrozumiałe podpisanie tekstu w źródle	!	!	!
!LO:TX:a:t=|:problem	!	!	!LO:TX:a:t=P:problem= kolejnośc znaków es b as	!	!	!	!LO:TX:a:t=P:problem=kolejność znaków&colon;b-,e-,a-&colon;tak jak w kluczu wiolinowym	!	!LO:TX:a:t=P:problem=kolejność znaków&colon;e-,b-,a-	!	!	!	!LO:TX:a:t=P:problem=kolejność znaków as es b	!	!LO:TX:a:t=2	!LO:TX:a:t=2
!LO:TX:a:B:t=Allo	!	!LO:DY:b:t=for	!LO:TX:a:B:t=Allo.	!	!	!	!LO:TX:a:B:t=Allo	!	!LO:TX:a:B:t=Allo	!	!LO:TX:a:t=P:problem=złe i niezrozumiałe podpisanie tekstu w źródle	!	!LO:TX:a:B:t=Allo	!	!LO:TX:a:B:t=Allo Solo	!LO:TX:a:B:t=Allo Solo
4E-\	.	f	4e-/	.	4ee-\	.	4E-\	Glo-	4E-/	Glo-	4e-\	Glo-	4ee-\	Glo-	1.r	1.r
!LO:TX:a:t=|:problem	!	!	!	!LO:DY:a:t=for	!	!	!	!	!	!	!	!	!	!	!	!
4G\	.	.	4g/	f	4gg\	.	4G\	.	4G/	.	4g\	.	4gg\	.	.	.
!LO:TX:a:t=|:problem	!	!	!	!	!	!	!	!	!	!	!	!	!	!	!	!
4B-\	.	.	4b-/	.	4bb-\	.	4B-\	-ri-	4B-/	-ri-	4b-\	-ri-	4bb-\	-ri-	.	.
=2	=2	=2	=2	=2	=2	=2	=2	=2	=2	=2	=2	=2	=2	=2	=2-	=2-
4G\	.	.	4g/	.	4gg\	.	4G\	.	4G/	.	4g\	.	4gg\	.	.	.
4E-\	.	.	4e-/	.	4ee-\	.	4E-\	-a	4E-/	-a	4e-\	-a	4ee-\	-a	.	.
4r	.	.	4r	.	4r	.	4r	.	4r	.	4r	.	4r	.	.	.
=3	=3	=3	=3	=3	=3	=3	=3	=3	=3	=3	=3	=3	=3	=3	=3	=3
!	!	!	!	!LO:DY:a:t=p.	!	!	!LO:TX:a:t=2	!	!LO:TX:a:t=2	!	!	!	!	!	!	!
4E-\	.	.	4g/	p	4b-/	.	1.r	.	1.r	.	4b-\	in	4gg\	in	4gg\	4bb-\
4A-\	6 x	.	4f/	.	4a-/	.	.	.	.	.	4a-\	ex-	4ff\	ex-	4ff\	4aa-\
!	!	!	!LO:TX:a:t=Dis	!	!	!	!	!	!	!	!	!	!	!	!	!
4An\	5 x	.	4e-/	.	4g/	.	.	.	.	.	4g\	-cel-	4ee-\	.	4ee-\	4gg\
=4	=4	=4	=4	=4	=4	=4	=4-	=4	=4-	=4	=4	=4	=4	=4	=4	=4
4B-\	4 x	.	4e-/	.	4g/	.	.	.	.	.	4g\	.	4ee-\	-cel-	4ee-\	4gg\
4BB-/	3 x	.	4d/	.	4f/	.	.	.	.	.	4f\	-sis	4dd\	-sis	4dd\	4ff\
4r	.	.	4r	.	4r	.	.	.	.	.	4r	.	4r	.	4r	4r
=5	=5	=5	=5	=5	=5	=5	=5	=5	=5	=5	=5	=5	=5	=5	=5	=5
*	*	*	*	*	*	*	*	*	*	*	*	*ij	*	*ij	*	*
!	!	!LO:DY:a:t=for	!	!LO:DY:a:t=f.	!	!	!	!	!	!	!	!	!	!	!LO:TX:a:t=2	!LO:TX:a:t=2
4BB-/	.	f	4B-/	f	4b-\	.	4BB-/	in	4B-\	in	4B-/	in	4b-\	in	1.r	1.r
4D\	.	.	4d/	.	4dd\	.	4D\	.	4d\	.	4d\	ex-	4dd\	.	.	.
4F\	.	.	4f/	.	4ff\	.	4F\	ex-	4f\	ex-	4f\	.	4ff\	ex-	.	.
=6	=6	=6	=6	=6	=6	=6	=6	=6	=6	=6	=6	=6	=6	=6	=6-	=6-
4D\	.	.	4d/	.	4dd\	.	4D\	-cel-	4d\	-cel-	4d/	-cel-	4dd\	-cel-	.	.
4BB-\	.	.	4B-/	.	4b-\	.	4BB-/	-sis	4B-\	-ſis	4B-/	-sis	4b-\	-sis	.	.
4r	.	.	4r	.	4r	.	4r	.	4r	.	4r	.	4r	.	.	.
*	*	*	*	*	*	*	*	*	*	*	*	*Xij	*	*Xij	*	*
!	!	!	!	!	!	!	!	!	!	!	!LO:LB:g=original	!	!	!	!	!
=7	=7	=7	=7	=7	=7	=7	=7	=7	=7	=7	=7	=7	=7	=7	=7	=7
!	!	!	!	!LO:DY:a:t=p.	!	!	!LO:TX:a:t=1	!	!LO:TX:a:t=1	!	!	!	!LO:TX:a:i:t=Solo	!	!	!
4BB-/	5 3	.	4d/	p	4f/	.	2.r	.	2.r	.	4f\	De-	4dd\	De-	4dd\	4ff\
4B-\	6 4	.	4e-/	.	4g/	.	.	.	.	.	4g\	.	4ee-\	.	4ee-\	4gg\
4BB-/	-7 5	.	4f/	.	4a-/	.	.	.	.	.	4a-\	-o	4ff\	-o	4ff\	4aa-\
!LO:LB:g=original	!	!	!	!	!LO:LB:g=original	!	!	!	!	!	!	!	!	!	!	!
=8	=8	=8	=8	=8	=8	=8	=8	=8	=8	=8	=8	=8	=8	=8	=8	=8
4E-\	x 4	.	4f/	.	4a-/	.	4r	.	4r	.	4a-\	glo-	4ff\	glo-	4ff\	4aa-\
4EE-/	x 3	.	4e-/	.	4g/	.	4r	.	4r	.	4g\	-ri-	4ee-\	.	4ee-\	4gg\
4r	.	.	4r	.	8r	.	4E-\	De-	4B-\	De-	4g\	-a	4ee-\	-ria	4ee-\	4gg\
.	.	.	.	.	8ee-\	.	.	.	.	.	.	.	.	.	.	.
!	!	!	!LO:LB:g=original	!	!	!	!	!	!	!	!	!	!	!	!	!
=9	=9	=9	=9	=9	=9	=9	=9	=9	=9	=9	=9	=9	=9	=9	=9	=9
*tremolo	*	*	*	*	*	*	*	*	*	*	*	*	*	*	*	*
*2\right	*	*	*	*	*	*	*2\right	*	*2\right	*	*2\right	*	*	*	*2\right	*2\right
!	!	!LO:DY:a:t=for	!	!	!	!	!	!	!	!	!	!	!LO:TX:a:t=P:problem=brak źródła w taktach 9-36 -nie ma kawałka strony	!	!	!
8E-\L	.	f	4g/	.	4b-\	.	2E-\	-o	2e-\	.	2b-\	et	2.ryy	.	2.gg\	2.bb-\
8E-\	.	.	.	.	.	.	.	.	.	.	.	.	.	.	.	.
8E-\	.	.	4e-/	.	4g/	.	.	.	.	.	.	.	.	.	.	.
8E-\	.	.	.	.	.	.	.	.	.	.	.	.	.	.	.	.
8E-\	.	.	8r	.	8r	.	4E-\	glo-	4e-\	-o	4b-\	in	.	.	.	.
8E-\J	.	.	8g/	.	8b-\	.	.	.	.	.	.	.	.	.	.	.
=10	=10	=10	=10	=10	=10	=10	=10	=10	=10	=10	=10	=10	=10	=10	=10	=10
!	!	!	!	!	!LO:TX:a:t=P:problem=dopisane dwa takty 10-11	!	!	!	!	!	!	!	!	!	!	!
8E-\L	6 4	.	4a-/	.	4cc\	.	2E-\	.	2e-\	glo-	2cc\	ter-	2.ryy	.	2.aa-\	2.ccc\
8E-\	.	.	.	.	.	.	.	.	.	.	.	.	.	.	.	.
8E-\	.	.	4cc\	.	4ee-\	.	.	.	.	.	.	.	.	.	.	.
8E-\	.	.	.	.	.	.	.	.	.	.	.	.	.	.	.	.
8E-\	.	.	8r	.	4r	.	4E-\	-ri-	4e-\	.	4cc\	-ra	.	.	.	.
8E-\J	.	.	8a-\	.	.	.	.	.	.	.	.	.	.	.	.	.
!	!	!	!	!	!	!	!	!	!LO:LB:g=original	!	!	!	!	!	!	!
=11	=11	=11	=11	=11	=11	=11	=11	=11	=11	=11	=11	=11	=11	=11	=11	=11
8E-\L	5 3	.	4g/	.	4b-/	.	2E-\	-a	2e-\	-ri-	2b-\	pax	2.ryy	.	2gg\	2bb-\
8E-\	.	.	.	.	.	.	.	.	.	.	.	.	.	.	.	.
8E-\	.	.	4e-/	.	4g/	.	.	.	.	.	.	.	.	.	.	.
8E-\	.	.	.	.	.	.	.	.	.	.	.	.	.	.	.	.
8E-\	.	.	8r	.	4r	.	4E-\	et	4e-\	-a	4a-\	.	.	.	4gg\	4gg\
8E-\J	.	.	8e-/	.	.	.	.	.	.	.	.	.	.	.	.	.
!	!	!	!	!	!	!	!LO:LB:g=original	!	!	!	!	!	!	!	!	!
=12	=12	=12	=12	=12	=12	=12	=12	=12	=12	=12	=12	=12	=12	=12	=12	=12
8BB-/L	5 3	.	4d/	.	4f/	.	2.B-\	in	4f\	et	4f\	ho-	2.ryy	.	4dd\	4ff\
8BB-/	.	.	.	.	.	.	.	.	.	.	.	.	.	.	.	.
8BB-/	6 4	.	4e-/	.	4g/	.	.	.	4e-\	.	4g\	.	.	.	4ee-\	4gg\
8BB-/	.	.	.	.	.	.	.	.	.	.	.	.	.	.	.	.
8BB-/	5 3	.	4f/	.	4a-/	.	.	.	4d\	in	4a-\	-mi-	.	.	4ff\	4aa-\
8BB-/J	.	.	.	.	.	.	.	.	.	.	.	.	.	.	.	.
!	!	!	!	!	!	!	!	!	!	!	!	!	!	!	!	!LO:LB:g=original
=13	=13	=13	=13	=13	=13	=13	=13	=13	=13	=13	=13	=13	=13	=13	=13	=13
8E-\L	x 3	.	4e-/	.	4g/	.	2E-\	ter-	2e-\	ter-	2g\	-ni-	2.ryy	.	4ee-\	4gg\
8E-\	.	.	.	.	.	.	.	.	.	.	.	.	.	.	.	.
8E-\	.	.	4g/	.	4b-\	.	.	.	.	.	.	.	.	.	4gg\	4bb-\
8E-\	.	.	.	.	.	.	.	.	.	.	.	.	.	.	.	.
8E-\	.	.	8r	.	8r	.	4E-\	.	4e-\	.	4b-\	-bus	.	.	4gg\	4bb-\
8E-\J	.	.	8g/	.	8b-\	.	.	.	.	.	.	.	.	.	.	.
=14	=14	=14	=14	=14	=14	=14	=14	=14	=14	=14	=14	=14	=14	=14	=14	=14
8E-\L	s 4	.	4a-/	.	4cc\	.	2E-\	-ra	2e-\	-ra	2cc\	bo-	2.ryy	.	2.aa-\	2.ccc\
8E-\	.	.	.	.	.	.	.	.	.	.	.	.	.	.	.	.
8E-\	.	.	4cc\	.	4ee-\	.	.	.	.	.	.	.	.	.	.	.
8E-\	.	.	.	.	.	.	.	.	.	.	.	.	.	.	.	.
!	!	!	!	!	!	!	!	!	!	!	!	!LO:MO:P=-nae	!	!	!	!
8E-\	.	.	8r	.	8r	.	4E-\	pax	4e-\	.	4cc\	-ne	.	.	.	.
8E-\J	.	.	8a-/	.	8cc\	.	.	.	.	.	.	.	.	.	.	.
!	!	!	!	!	!	!	!	!	!	!	!	!	!	!	!LO:LB:g=original	!
=15	=15	=15	=15	=15	=15	=15	=15	=15	=15	=15	=15	=15	=15	=15	=15	=15
*	*	*	*	*	*	*	*	*	*	*	*	*ij	*	*	*	*
8E-\L	x 3	.	4g/	.	4b-\	.	2E-\	.	2e-\	pax	4b-\	bo-	2.ryy	.	2.gg\	4bb-\
8E-\	.	.	.	.	.	.	.	.	.	.	.	.	.	.	.	.
8E-\	.	.	4e-/	.	4g\	.	.	.	.	.	4b-\	.	.	.	.	2bb-\
8E-\	.	.	.	.	.	.	.	.	.	.	.	.	.	.	.	.
!	!	!	!	!	!	!	!	!	!	!	!	!LO:MO:P=-nae-	!	!	!	!
8E-\	.	.	8r	.	8r	.	4E-\	.	4e-\	.	4b-\	-ne-	.	.	.	.
8E-\J	.	.	8g/	.	8ee-\	.	.	.	.	.	.	.	.	.	.	.
*	*	*	*	*	*	*	*	*	*	*	*	*Xij	*	*	*	*
=16	=16	=16	=16	=16	=16	=16	=16	=16	=16	=16	=16	=16	=16	=16	=16	=16
8A-\L	6 x	.	4a-/	.	4ff\	.	8A-\L	ho-	8c\	ho-	8a-\L	-vo-	2.ryy	.	4ff\	4aa-\
8A-\J	.	.	.	.	.	.	8A-\J	.	8c\	.	8a-\J	-lun-	.	.	.	.
8B-\L	x 4	.	4g/	.	4ee-\	.	4B-\	-mi-	2B-\	-mi-	4g\	-ta-	.	.	4ee-\	4gg\
8B-\J	.	.	.	.	.	.	.	.	.	.	.	.	.	.	.	.
8BB-/L	x 3	.	4f/	.	4dd\	.	4BB-/	-ni-	.	.	4f\	-tis	.	.	4dd\	4ff\
8BB-/J	.	.	.	.	.	.	.	.	.	.	.	.	.	.	.	.
!	!	!	!	!	!	!	!	!	!	!	!LO:TX:t=P:problem=wytatry takt	!	!	!	!	!
!	!	!	!	!	!	!	!	!	!	!	!LO:LB:g=original	!	!	!	!	!
=17	=17	=17	=17	=17	=17	=17	=17	=17	=17	=17	=17	=17	=17	=17	=17	=17
*	*	*	*^	*	*	*	*	*	*	*	*	*	*	*	*	*
*	*	*	*tremolo	*	*	*	*	*	*	*	*	*	*	*	*	*	*
*	*	*	*2\right	*	*	*	*	*	*	*	*	*	*	*	*	*	*
8E-\L	.	.	8b-/L	8g\L	.	4ee-\	.	2E-\	-bus	2B-\	-ni-	2g\	gra-	2.ryy	.	2ee-\	2.gg\
8E-\	.	.	8b-/	8g\	.	.	.	.	.	.	.	.	.	.	.	.	.
8E-\	.	.	8b-/	8g\	.	4gg\	.	.	.	.	.	.	.	.	.	.	.
8E-\	.	.	8b-/	8g\	.	.	.	.	.	.	.	.	.	.	.	.	.
8E-\	.	.	8b-/	8g\	.	8r	.	4e-\	.	4e-\	-bus	4b-\	.	.	.	4b-\	.
8E-\J	.	.	8b-/J	8g\J	.	8gg\	.	.	.	.	.	.	.	.	.	.	.
=18	=18	=18	=18	=18	=18	=18	=18	=18	=18	=18	=18	=18	=18	=18	=18	=18	=18
8D\L	6 x	.	8b-/L	8g\L	.	4ff\	.	2d\	bo-	2f\	.	2b-\	-tias	2.ryy	.	2.b-\	2.ff\
8D\	.	.	8b-/	8g\	.	.	.	.	.	.	.	.	.	.	.	.	.
8D\	.	.	8b-/	8g\	.	4bb-\	.	.	.	.	.	.	.	.	.	.	.
8D\	.	.	8b-/	8g\	.	.	.	.	.	.	.	.	.	.	.	.	.
8D\	.	.	8b-/	8g\	.	8r	.	4d\	.	4f\	bo-	4b-\	.	.	.	.	.
8D\J	.	.	8b-/J	8g\J	.	8bb-\	.	.	.	.	.	.	.	.	.	.	.
*	*	*	*v	*v	*	*	*	*	*	*	*	*	*	*	*	*	*
!	!	!	!LO:LB:g=original	!	!LO:LB:g=original	!	!	!	!	!	!	!	!	!	!	!
=19	=19	=19	=19	=19	=19	=19	=19	=19	=19	=19	=19	=19	=19	=19	=19	=19
*	*	*	*	*	*	*	*	*	*	*	*	*ij	*	*	*	*
!	!	!	!	!	!	!	!	!	!	!LO:MO:P=-nae	!LO:SIC:v:s:t=2b-\	!	!	!	!LO:SIC:v:s:t=2b-\	!
8C/L	6 x	.	8f/ 8ee-L/	.	8bb-\L	.	2c\	-ne	2f\	-ne	2a-\	gra-	2.ryy	.	2.a\	2.ee-\
8C/	.	.	8f/ 8ee-/	.	8aan\J	.	.	.	.	.	.	.	.	.	.	.
8C/	.	.	8f/ 8ee-/	.	4.aa\	.	.	.	.	.	.	.	.	.	.	.
8C/	.	.	8f/ 8ee-/	.	.	.	.	.	.	.	.	.	.	.	.	.
*	*	*	*	*	*	*	*	*ij	*	*	*	*	*	*	*	*
8C/	.	.	8f/ 8ee-/	.	.	.	4c\	bo-	4f\	.	4a-\	-tias	.	.	.	.
8C/J	.	.	8f/ 8ee-J/	.	8ccc\	.	.	.	.	.	.	.	.	.	.	.
*	*	*	*	*	*	*	*	*	*	*	*	*Xij	*	*	*	*
=20	=20	=20	=20	=20	=20	=20	=20	=20	=20	=20	=20	=20	=20	=20	=20	=20
*	*	*	*	*	*	*	*	*	*	*ij	*	*	*	*	*	*
8BB-/L	.	.	8f/ 8ddL/	.	8ccc\L	.	4B-\	.	4f\	bo-	4b-\	a-	2.ryy	.	2.b-\	2.dd\
8BB-/	.	.	8f/ 8dd/	.	8bb-\J	.	.	.	.	.	.	.	.	.	.	.
!	!	!	!	!	!	!	!	!	!	!LO:MO:P=-nae	!	!	!	!	!	!
8BB-/	.	.	8f/ 8dd/	.	4bb-\	.	4B-\	-ne	4f\	-ne-	4b-\	-gi-	.	.	.	.
8BB-/	.	.	8f/ 8dd/	.	.	.	.	.	.	.	.	.	.	.	.	.
*	*	*	*	*	*	*	*	*Xij	*	*Xij	*	*	*	*	*	*
!	!	!	!	!	!LO:TX:a:t=20:color=gray	!	!	!	!	!	!	!	!	!	!	!
8BB-/	.	.	8f/ 8dd/	.	8r	.	4B-\	vo-	4f\	.	4b-\	-mus	.	.	.	.
8BB-/J	.	.	8f/ 8ddJ/	.	8dd\	.	.	.	.	.	.	.	.	.	.	.
!LO:LB:g=original	!	!	!	!	!	!	!	!	!	!	!	!	!	!	!	!
=21	=21	=21	=21	=21	=21	=21	=21	=21	=21	=21	=21	=21	=21	=21	=21	=21
8AAn/L	6 5	.	(8c/L	.	(>8ff\L	.	2An\	-lun-	2f\	vo-	2cc\	ti-	2.ryy	.	2.cc\	2.ee-\
8AAn/	.	.	8f/)	.	8ee-\J)	.	.	.	.	.	.	.	.	.	.	.
8AAn/	.	.	8c/	.	4.ee-\	.	.	.	.	.	.	.	.	.	.	.
8AAn/	.	.	8f/)	.	.	.	.	.	.	.	.	.	.	.	.	.
8AAn/	.	.	8c/	.	.	.	4A\	.	4f\	-lun-	4cc\	-bi	.	.	.	.
8AAn/J	.	.	8f/)J	.	8cc\	.	.	.	.	.	.	.	.	.	.	.
=22	=22	=22	=22	=22	=22	=22	=22	=22	=22	=22	=22	=22	=22	=22	=22	=22
!	!	!	!	!	!LO:SIC:v:s:t=8dd\L	!	!	!	!	!	!	!	!	!	!	!
8BB-/L	.	.	(8d/L	.	8cc#X\L	.	2B-\	-ta-	2f\	-ta-	2b-\	pro-	2.ryy	.	2.b-\	2.dd\
8BB-/	.	.	8f/)	.	8dd\J	.	.	.	.	.	.	.	.	.	.	.
8BB-/	.	.	8d/	.	4dd\	.	.	.	.	.	.	.	.	.	.	.
8BB-/	.	.	8f/)	.	.	.	.	.	.	.	.	.	.	.	.	.
8BB-/	.	.	8d/	.	8r	.	4B-\	-tis	4f\	-tis	4b-\	.	.	.	.	.
8BB-/J	.	.	8f/)J	.	8b-\	.	.	.	.	.	.	.	.	.	.	.
=23	=23	=23	=23	=23	=23	=23	=23	=23	=23	=23	=23	=23	=23	=23	=23	=23
!	!	!	!	!	!	!	!	!	!	!	!	!	!	!	!	!LO:TX:a:t=P:problem=takty 23-26 zapisane repetycją
8C/L	6 3	.	(8e-/L	.	8b-\L	.	2c\	.	2f\	.	2an\	-pter	2.ryy	.	2.a\	2.ee-\yy
8C/	.	.	8f/)	.	8an\J	.	.	.	.	.	.	.	.	.	.	.
8C/	.	.	8e-/	.	4.a\	.	.	.	.	.	.	.	.	.	.	.
8C/	.	.	8f/)	.	.	.	.	.	.	.	.	.	.	.	.	.
8C/	.	.	8e-/	.	.	.	4c\	gra-	4f\	gra-	4a\	.	.	.	.	.
8C/J	.	.	8f/)J	.	8cc\	.	.	.	.	.	.	.	.	.	.	.
=24	=24	=24	=24	=24	=24	=24	=24	=24	=24	=24	=24	=24	=24	=24	=24	=24
8BB-/L	.	.	(8d/L	.	8cc\L	.	4B-\	.	4f\	-ti-	4b-\	ma-	2.ryy	.	2.b-\	2.dd\yy
8BB-/	.	.	8f/)	.	8b-\J	.	.	.	.	.	.	.	.	.	.	.
8BB-/	.	.	8d/	.	4b-\	.	4B-\	.	4f\	.	4b-\	.	.	.	.	.
8BB-/	.	.	8f/)	.	.	.	.	.	.	.	.	.	.	.	.	.
8BB-/	.	.	8d/	.	8r	.	4B-\	-ti-	4f\	-as	4b-\	-gnam	.	.	.	.
8BB-/J	.	.	8f/)J	.	8dd\	.	.	.	.	.	.	.	.	.	.	.
!	!	!	!	!	!	!	!	!	!LO:LB:g=original	!	!	!	!	!	!	!
=25	=25	=25	=25	=25	=25	=25	=25	=25	=25	=25	=25	=25	=25	=25	=25	=25
!LO:TX:b:t=25	!	!	!	!	!	!	!	!	!	!	!	!	!	!	!	!
8AAn/L	6 5	.	(8c/L	.	8ff\L	.	2An\	-as	2f\	a-	2cc\	[ma-	2.ryy	.	2.cc\	2.ee-\yy
8AAn/	.	.	8f/)	.	8ee-\J	.	.	.	.	.	.	.	.	.	.	.
8AAn/	.	.	8c/	.	(>4.ee-\	.	.	.	.	.	.	.	.	.	.	.
8AAn/	.	.	8f/)	.	.	.	.	.	.	.	.	.	.	.	.	.
*	*	*	*	*	*	*	*	*ij	*	*	*	*	*	*	*	*
!	!	!	!	!	!	!	!LO:TX:t=P:problem=za mało nut w stosunku do sylab tekstu	!	!	!	!	!	!	!	!	!
8AAn/	.	.	8c/	.	.	.	4A\	gratias	4f\	-gi-	4cc\	-gnam]	.	.	.	.
8AAn/J	.	.	8f/)J	.	8cc\)	.	.	.	.	.	.	.	.	.	.	.
*	*	*	*	*	*	*	*	*Xij	*	*	*	*	*	*	*	*
!	!	!	!	!	!LO:LB:g=original	!	!LO:LB:g=original	!	!	!	!	!	!	!	!	!
=26	=26	=26	=26	=26	=26	=26	=26	=26	=26	=26	=26	=26	=26	=26	=26	=26
!	!	!	!	!	!LO:SIC:v:s:t=8dd\	!	!	!	!	!	!	!	!	!	!	!
8BB-/L	.	.	(8d/L	.	8cc#X\L	.	4B-\	ti-	4f\	-mus	4b-\	glo-	2.ryy	.	2.b-\	2.dd\yy
8BB-/	.	.	8f/)	.	8dd\J	.	.	.	.	.	.	.	.	.	.	.
8BB-/	.	.	8d/	.	4.dd\	.	4B-\	-bi	4f\	.	4b-\	-ri-	.	.	.	.
8BB-/	.	.	8f/)	.	.	.	.	.	.	.	.	.	.	.	.	.
8BB-/	.	.	8d/	.	.	.	4B-\	glo-	4f\	ti-	4b-\	-am-	.	.	.	.
8BB-/J	.	.	8f/)J	.	8ff\	.	.	.	.	.	.	.	.	.	.	.
*Xtremolo	*	*	*Xtremolo	*	*	*	*	*	*	*	*	*	*	*	*	*
=27	=27	=27	=27	=27	=27	=27	=27	=27	=27	=27	=27	=27	=27	=27	=27	=27
!!mixed beam:problem
!LO:TX:t=P:problem=mixed beam	!	!	!	!	!LO:TX:a:t=25:rj:color=gray	!	!	!	!	!	!	!	!	!	!	!
8E-\L	.	.	8g/L	.	8ee-\L	.	4E-\	-ri-	4g\	.	4cc\	.	2.ryy	.	4cc\	4ee-\
8E-\	6 x	.	8e-/J	.	8ccn\J	.	.	.	.	.	.	.	.	.	.	.
8F\	.	.	4e-/	.	4b-\	.	2F\	-am	2f\	.	4b-\	-tu-	.	.	4b-\	4dd\
8F\	4 x	.	.	.	.	.	.	.	.	.	.	.	.	.	.	.
8FF/	.	.	4c/	.	4an/	.	.	.	.	.	4an\	.	.	.	4a\	4cc\
8FF/J	n x	.	.	.	.	.	.	.	.	.	.	.	.	.	.	.
!	!	!	!	!	!	!	!	!	!	!	!LO:LB:g=original	!	!	!	!	!
=28	=28	=28	=28	=28	=28	=28	=28	=28	=28	=28	=28	=28	=28	=28	=28	=28
!	!	!LO:DY:a:t=pia	!	!	!	!	!LO:TX:t=P:problem=za mało nut w stosunku do sylab tekstu	!	!	!	!	!	!	!	!LO:TX:a:t=Solo	!LO:TX:a:t=Solo
4BB-/	.	p	4d/	.	4b-\	.	4BB-/	tuam	4f\	-bi	4b-\	-am	2.ryy	.	4b-\	4dd\
4BB-/	.	.	4d/	.	4f/	.	2r	.	4r	.	2r	.	.	.	8r	8r
.	.	.	.	.	.	.	.	.	.	.	.	.	.	.	(>8b-\L	8dd\L
4r	.	.	4r	.	4r	.	.	.	4r	.	.	.	.	.	8cc\	8ee-\
.	.	.	.	.	.	.	.	.	.	.	.	.	.	.	8cc#X\J)	8eeX\J
!	!	!	!	!	!	!	!	!	!	!	!	!	!	!	!LO:LB:g=original	!
=29	=29	=29	=29	=29	=29	=29	=29	=29	=29	=29	=29	=29	=29	=29	=29	=29
!	!	!	!	!	!	!	!LO:TX:a:t=29	!	!LO:TX:a:t=29	!	!LO:TX:a:t=29	!	!	!	!	!
4AAn/	6 x	.	4c/	.	4f/	.	2.r	.	2.r	.	2.r	.	2.ryy	.	(>8.dd\L	8.ff\L
.	.	.	.	.	.	.	.	.	.	.	.	.	.	.	16cc\Jk)	16eeX\Jk
4AA/	.	.	4c/	.	4f/	.	.	.	.	.	.	.	.	.	8cc\L	8ee-\L
.	.	.	.	.	.	.	.	.	.	.	.	.	.	.	8a\	8cc\
4r	.	.	4r	.	4r	.	.	.	.	.	.	.	.	.	8b-\	8dd\
.	.	.	.	.	.	.	.	.	.	.	.	.	.	.	8cc\J	8ee-\J
!	!	!	!	!	!	!	!	!	!	!	!	!	!	!	!	!LO:LB:g=original
=30	=30	=30	=30	=30	=30	=30	=30-	=30	=30-	=30	=30-	=30	=30	=30	=30	=30
4BB-/	.	.	4d/	.	4f/	.	2.r	.	2.r	.	2.r	.	2.ryy	.	8.dd\L	8.ff\L
.	.	.	.	.	.	.	.	.	.	.	.	.	.	.	16cc\Jk	16ee-\Jk
!LO:TX:b:t=Verte.ate.	!	!	!	!	!LO:TX:a:t=30:color=gray	!	!	!	!	!	!	!	!	!	!LO:TX:a:t=|:problem	!LO:TX:a:t=|:problem
4BB-/	.	.	4d/	.	4f/	.	.	.	.	.	.	.	.	.	8b-\L	8dd\L
!	!	!	!	!	!	!	!	!	!	!	!	!	!	!	!LO:TX:a:t=|:problem	!LO:TX:a:t=|:problem
.	.	.	.	.	.	.	.	.	.	.	.	.	.	.	8b-\	8dd\
4r	.	.	4r	.	4r	.	.	.	.	.	.	.	.	.	(>8cc\	(>8ee-\
.	.	.	.	.	.	.	.	.	.	.	.	.	.	.	8dd\J)	8ff\J)
!LO:PB:g=original	!	!	!LO:LB:g=original	!	!	!	!	!	!	!	!	!	!	!	!	!
=31	=31	=31	=31	=31	=31	=31	=31-	=31	=31-	=31	=31-	=31	=31	=31	=31	=31
2.BB-/	x 4	.	2.e-/	.	2.g/	.	2.r	.	2.r	.	2.r	.	2.ryy	.	8ee-\L	(>8gg\L
.	.	.	.	.	.	.	.	.	.	.	.	.	.	.	8ff\	8aa\
.	.	.	.	.	.	.	.	.	.	.	.	.	.	.	8gg\	8bb-\
.	.	.	.	.	.	.	.	.	.	.	.	.	.	.	8ff\	8aa\
.	.	.	.	.	.	.	.	.	.	.	.	.	.	.	8gg\	8bb-\)
!	!	!	!	!	!	!	!	!	!	!	!	!	!	!	!LO:SIC:v:s:t=8gg\J	!
.	.	.	.	.	.	.	.	.	.	.	.	.	.	.	8ff\J	8gg\J
=32	=32	=32	=32	=32	=32	=32	=32-	=32	=32-	=32	=32-	=32	=32	=32	=32	=32
2.B-\	.	.	2.d/	.	2.f/	.	2.r	.	2.r	.	2.r	.	2.ryy	.	8dd\L	(>8ee-\L
.	.	.	.	.	.	.	.	.	.	.	.	.	.	.	8ee-\	8gg\
.	.	.	.	.	.	.	.	.	.	.	.	.	.	.	8dd\	8ff\
.	.	.	.	.	.	.	.	.	.	.	.	.	.	.	8cc\	8ee-\
.	.	.	.	.	.	.	.	.	.	.	.	.	.	.	8b-\	8dd\
.	.	.	.	.	.	.	.	.	.	.	.	.	.	.	8dd\J	8ff\J)
=33	=33	=33	=33	=33	=33	=33	=33-	=33	=33-	=33	=33-	=33	=33	=33	=33	=33
4E-\	.	.	4e-/	.	4e-/	.	2.r	.	2.r	.	2.r	.	2.ryy	.	8ee-\L	8gg\L
.	.	.	.	.	.	.	.	.	.	.	.	.	.	.	8cc\J	8ee-\J
4F\	.	.	4d/	.	4d/	.	.	.	.	.	.	.	.	.	4b-\	4dd\
4FF/	.	.	4c/	.	4c/	.	.	.	.	.	.	.	.	.	4a\	4cc\
=34	=34	=34	=34	=34	=34	=34	=34-	=34	=34-	=34	=34-	=34	=34	=34	=34	=34
4BB-/	.	.	4d/	.	4d/	.	2.r	.	2.r	.	2.r	.	2.ryy	.	4b-\	4dd\
4BB-/	.	.	4d/	.	4d/	.	.	.	.	.	.	.	.	.	4b-\	4dd\
4r	.	.	4r	.	4r	.	.	.	.	.	.	.	.	.	4r	4r
=35	=35	=35	=35	=35	=35	=35	=35-	=35	=35-	=35	=35-	=35	=35	=35	=35	=35
!	!	!	!	!	!	!	!	!	!	!	!	!	!	!	!LO:TX:a:t=23	!LO:TX:a:t=23
4r	.	.	8B-/L	.	4ff\	.	2.r	.	2.r	.	2.r	.	2.ryy	.	2.r	2.r
.	.	.	8d/	.	.	.	.	.	.	.	.	.	.	.	.	.
4B-\	.	.	8f/	.	4dd\	.	.	.	.	.	.	.	.	.	.	.
.	.	.	8d/	.	.	.	.	.	.	.	.	.	.	.	.	.
4B-\	.	.	8B-/	.	8r	.	.	.	.	.	.	.	.	.	.	.
.	.	.	8f/J	.	8ff\	.	.	.	.	.	.	.	.	.	.	.
!	!	!	!	!	!LO:LB:g=original	!	!	!	!	!	!	!	!	!	!	!
=36	=36	=36	=36	=36	=36	=36	=36-	=36	=36-	=36	=36-	=36	=36	=36	=36-	=36-
4r	.	.	8c/L	.	(>8ff\L	.	2.r	.	2.r	.	2.r	.	2.ryy	.	2.r	2.r
.	.	.	8f/	.	8ee-\J)	.	.	.	.	.	.	.	.	.	.	.
!	!	!	!	!	!LO:TX:a:t=|:problem	!	!	!	!	!	!	!	!	!	!	!
4c\	6 3	.	8e-/	.	4ee-\	.	.	.	.	.	.	.	.	.	.	.
.	.	.	8f/	.	.	.	.	.	.	.	.	.	.	.	.	.
4c\	.	.	8An/	.	4r	.	.	.	.	.	.	.	.	.	.	.
.	.	.	8f/J	.	.	.	.	.	.	.	.	.	.	.	.	.
=37	=37	=37	=37	=37	=37	=37	=37-	=37	=37-	=37	=37-	=37	=37	=37	=37-	=37-
!	!	!	!	!	!LO:TX:a:t=|:problem	!	!	!	!	!	!	!	!	!	!	!
4r	.	.	8An/L	.	4ee-\	.	2.r	.	2.r	.	2.r	.	4ee-\	Do-	2.r	2.r
.	.	.	8c/	.	.	.	.	.	.	.	.	.	.	.	.	.
!	!	!	!	!	!LO:TX:a:t=|:problem	!	!	!	!	!	!	!	!	!	!	!
4An\	6 5	.	8f/	.	4cc\	.	.	.	.	.	.	.	4cc\	-mi-	.	.
.	.	.	8c/	.	.	.	.	.	.	.	.	.	.	.	.	.
4A\	.	.	8A/	.	8r	.	.	.	.	.	.	.	8r	.	.	.
.	.	.	8c/J	.	8ff\	.	.	.	.	.	.	.	8ee-\	-ne	.	.
=38	=38	=38	=38	=38	=38	=38	=38-	=38	=38-	=38	=38-	=38	=38	=38	=38-	=38-
4r	.	.	8B-/L	.	8ee-\L	.	2.r	.	2.r	.	2.r	.	8ee-\L	De-	2.r	2.r
.	.	.	8d/	.	8dd\J	.	.	.	.	.	.	.	8dd\J	.	.	.
4B-\	.	.	8f/	.	4dd\	.	.	.	.	.	.	.	4dd\	-us	.	.
.	.	.	8d/	.	.	.	.	.	.	.	.	.	.	.	.	.
(<4B-\	.	.	8B-/	.	4r	.	.	.	.	.	.	.	4r	.	.	.
.	.	.	8d/J	.	.	.	.	.	.	.	.	.	.	.	.	.
=39	=39	=39	=39	=39	=39	=39	=39-	=39	=39-	=39	=39-	=39	=39	=39	=39-	=39-
*tremolo	*	*	*	*	*	*	*	*	*	*	*	*	*	*	*	*
8D\L)	6 x	.	2.f/	.	4ff\	.	2.r	.	2.r	.	2.r	.	4ff\	Rex	2.r	2.r
8D\	.	.	.	.	.	.	.	.	.	.	.	.	.	.	.	.
8D\	.	.	.	.	8ee-\L	.	.	.	.	.	.	.	8.ee-\L	.	.	.
8D\	.	.	.	.	8dd\J	.	.	.	.	.	.	.	.	.	.	.
.	.	.	.	.	.	.	.	.	.	.	.	.	16dd\Jk	coe-	.	.
8D\	.	.	.	.	8cc\L	.	.	.	.	.	.	.	8cc\L	-les-	.	.
8D\J	.	.	.	.	8b-\J	.	.	.	.	.	.	.	8b-\J	.	.	.
*Xtremolo	*	*	*	*	*	*	*	*	*	*	*	*	*	*	*	*
=40	=40	=40	=40	=40	=40	=40	=40-	=40	=40-	=40	=40-	=40	=40	=40	=40-	=40-
2.E-\	6 x	.	2.g/	.	4.gg\	.	2.r	.	2.r	.	2.r	.	4.gg\	-tis	2.r	2.r
.	.	.	.	.	8ee-\	.	.	.	.	.	.	.	4ee-\	.	.	.
!	!	!	!	!	!LO:TX:a:rj:t=40:color=gray	!	!	!	!	!	!	!	!	!	!	!
.	.	.	.	.	4cc\	.	.	.	.	.	.	.	.	.	.	.
.	.	.	.	.	.	.	.	.	.	.	.	.	8cc\	De-	.	.
=41	=41	=41	=41	=41	=41	=41	=41-	=41	=41-	=41	=41-	=41	=41	=41	=41-	=41-
2.F\	x n4r	.	2f/	.	4dd\	.	2.r	.	2.r	.	2.r	.	4cc\	-us	2.r	2.r
.	.	.	.	.	8ff\L	.	.	.	.	.	.	.	8ff\L	pa-	.	.
.	.	.	.	.	8ee-\	.	.	.	.	.	.	.	8ee-\J	-ter	.	.
.	.	.	4e-/	.	8dd\	.	.	.	.	.	.	.	8dd\L	om-	.	.
.	.	.	.	.	8cc\J	.	.	.	.	.	.	.	8dd\J	-ni-	.	.
!	!	!	!LO:LB:g=original	!	!	!	!	!	!	!	!	!	!	!	!	!
=42	=42	=42	=42	=42	=42	=42	=42-	=42	=42-	=42	=42-	=42	=42	=42	=42-	=42-
8r	x 3:	.	8e-/L	.	8cc\L	.	2.r	.	2.r	.	2.r	.	8cc\L	-po-	2.r	2.r
8BB-/L	.	.	8d/J	.	8b-\J	.	.	.	.	.	.	.	8b-\J	.	.	.
8AA-/	.	.	4d/	.	4b-\	.	.	.	.	.	.	.	4b-\	-tens	.	.
8BB-/	.	.	.	.	.	.	.	.	.	.	.	.	.	.	.	.
8D/	.	.	4r	.	4r	.	.	.	.	.	.	.	4r	.	.	.
8F/J	.	.	.	.	.	.	.	.	.	.	.	.	.	.	.	.
!LO:LB:g=original	!	!	!	!	!	!	!	!	!	!	!	!	!	!	!	!
=43	=43	=43	=43	=43	=43	=43	=43-	=43	=43-	=43	=43-	=43	=43	=43	=43-	=43-
2.B-\	5 x	.	4ee-\	.	4ff\	.	2.r	.	2.r	.	2.r	.	4ff\	Do-	2.r	2.r
.	6 x	.	2dd\	.	4gg\	.	.	.	.	.	.	.	4gg\	-mi-	.	.
.	5 x	.	.	.	4ff\	.	.	.	.	.	.	.	4ff\	-ne	.	.
=44	=44	=44	=44	=44	=44	=44	=44-	=44	=44-	=44	=44-	=44	=44	=44	=44-	=44-
*	*	*	*	*	*2\right	*	*	*	*	*	*	*	*2\right	*	*	*
4B-\	n4 2	.	2.cc\	.	(>2.een\	.	2.r	.	2.r	.	2.r	.	2.een\	Fi-	2.r	2.r
4c\	.	.	.	.	.	.	.	.	.	.	.	.	.	.	.	.
4B-\	.	.	.	.	.	.	.	.	.	.	.	.	.	.	.	.
!	!	!	!	!	!LO:LB:g=original	!	!	!	!	!	!	!	!	!LO:LB:g=original	!	!
=45	=45	=45	=45	=45	=45	=45	=45-	=45	=45-	=45	=45-	=45	=45	=45	=45-	=45-
2.An\	5 x	.	2.cc\	.	4ee-\)	.	2.r	.	2.r	.	2.r	.	4ee-\	.	2.r	2.r
.	6 x	.	.	.	4ff\	.	.	.	.	.	.	.	4ff\	.	.	.
.	-5 x	.	.	.	(>4ee-X\	.	.	.	.	.	.	.	4ee-X\	-li	.	.
=46	=46	=46	=46	=46	=46	=46	=46-	=46	=46-	=46	=46-	=46	=46	=46	=46-	=46-
!	!	!	!	!	!LO:TX:a:t=P:problem=niewyraźne źródło	!	!	!	!	!	!	!	!	!	!	!
4An\	4: 2:	.	2.b-\	.	2.dd\)	.	2.r	.	2.r	.	2.r	.	2.dd\	u-	2.r	2.r
4B-\	.	.	.	.	.	.	.	.	.	.	.	.	.	.	.	.
4A-X\	.	.	.	.	.	.	.	.	.	.	.	.	.	.	.	.
=47	=47	=47	=47	=47	=47	=47	=47-	=47	=47-	=47	=47-	=47	=47	=47	=47-	=47-
!	!	!	!	!	!LO:SIC:v:s:t=4dd\	!	!	!	!	!	!	!	!	!	!	!
!	!	!	!	!	!LO:TX:a:t=c:color=gray	!	!	!	!	!	!	!	!	!	!	!
2.G\	5 x	.	2.b-\	.	4cc\	.	2.r	.	2.r	.	2.r	.	4dd\	-ni	2.r	2.r
!	!	!	!	!	!LO:TX:a:t=b:color=gray	!	!	!	!	!	!	!	!	!	!	!
.	6 x	.	.	.	4b-\	.	.	.	.	.	.	.	4ee-\	ge-	.	.
!	!	!	!	!	!LO:TX:a:t=d:color=gray	!	!	!	!	!	!	!	!LO:SIC:v:s:t=4ddn\	!	!	!
.	-5 x	.	.	.	4ddn\	.	.	.	.	.	.	.	4dd-X\	-ni-	.	.
=48	=48	=48	=48	=48	=48	=48	=48-	=48	=48-	=48	=48-	=48	=48	=48	=48-	=48-
4A-\	x: 3	.	2e-/	.	4cc\	.	2.r	.	2.r	.	2.r	.	4cc\	-te	2.r	2.r
4G\	.	.	.	.	4b-\	.	.	.	.	.	.	.	4b-\	Je-	.	.
4F\	6 X	.	4a-/	.	4ddn\	.	.	.	.	.	.	.	4dd\	-su	.	.
=49	=49	=49	=49	=49	=49	=49	=49-	=49	=49-	=49	=49-	=49	=49	=49	=49-	=49-
4E-\	8 3:	.	4g/	.	4ee-\	.	2.r	.	2.r	.	2.r	.	4ee-\	.	2.r	2.r
4F\	6 X	.	4a-/	.	4dd\	.	.	.	.	.	.	.	4dd\	Chri-	.	.
4G\	-5 X	.	4b-/	.	4dd-X\	.	.	.	.	.	.	.	4dd-X\	.	.	.
=50	=50	=50	=50	=50	=50	=50	=50-	=50	=50-	=50	=50-	=50	=50	=50	=50-	=50-
!	!	!	!	!	!LO:TX:a:t=P:problem= takty 50-51 zapisane repetycją	!	!	!	!	!	!	!	!	!	!	!
4A-\	.	.	2e-/	.	4cc\yy	.	2.r	.	2.r	.	2.r	.	4cc\	-ſte	2.r	2.r
4G\	.	.	.	.	4b-\yy	.	.	.	.	.	.	.	4b-\	.	.	.
4F\	6 3	.	4a-/	.	4ddn\yy	.	.	.	.	.	.	.	4ddn\	Do-	.	.
=51	=51	=51	=51	=51	=51	=51	=51-	=51	=51-	=51	=51-	=51	=51	=51	=51-	=51-
4E-\	8 3:	.	4g/	.	4ee-\yy	.	2.r	.	2.r	.	2.r	.	4ee-\	-mi-	2.r	2.r
4F\	6 X	.	4a-/	.	4dd\yy	.	.	.	.	.	.	.	4dd\	.	.	.
4G\	-5 X	.	4b-/	.	4dd-X\yy	.	.	.	.	.	.	.	4dd-X\	-ne	.	.
=52	=52	=52	=52	=52	=52	=52	=52-	=52	=52-	=52	=52-	=52	=52	=52	=52-	=52-
2.A-\	x 3	.	2a-/	.	4cc\	.	2.r	.	2.r	.	2.r	.	4cc\	De-	2.r	2.r
!	!	!	!	!	!LO:TX:a:t=52:color=gray	!	!	!	!	!	!	!	!	!	!	!
.	.	.	.	.	4ddn\	.	.	.	.	.	.	.	4ddn\	-us	.	.
.	.	.	4cc\	.	4ee-\	.	.	.	.	.	.	.	4ee-\	.	.	.
=53	=53	=53	=53	=53	=53	=53	=53-	=53	=53-	=53	=53-	=53	=53	=53	=53-	=53-
4A-\	6 3	.	4cc\	.	2.ff\	.	2.r	.	2.r	.	2.r	.	2.ff\	a-	2.r	2.r
8B-\L	.	.	(>8dd\L	.	.	.	.	.	.	.	.	.	.	.	.	.
8c\	.	.	8ee-\	.	.	.	.	.	.	.	.	.	.	.	.	.
8B-\	.	.	8dd\	.	.	.	.	.	.	.	.	.	.	.	.	.
8A-\J	.	.	8cc\J)	.	.	.	.	.	.	.	.	.	.	.	.	.
=54	=54	=54	=54	=54	=54	=54	=54-	=54	=54-	=54	=54-	=54	=54	=54	=54-	=54-
!LO:N:vis=2	!	!	!	!	!	!	!	!	!	!	!	!	!	!	!	!
2.G\	7 3	.	2.b-\	.	4ff\	.	2.r	.	2.r	.	2.r	.	4ff\	-gnus	2.r	2.r
.	.	.	.	.	8ee-\L	.	.	.	.	.	.	.	8ee-\L	.	.	.
.	6 x	.	.	.	8dd\J	.	.	.	.	.	.	.	8dd\J	.	.	.
.	.	.	.	.	4ee-\	.	.	.	.	.	.	.	4ee-\	.	.	.
!LO:LB:g=original	!	!	!LO:LB:g=original	!	!	!	!	!	!	!	!	!	!	!LO:LB:g=original	!	!
=55	=55	=55	=55	=55	=55	=55	=55-	=55	=55-	=55	=55-	=55	=55	=55	=55-	=55-
4A-\	6 x	.	4a-/	.	4ff\	.	2.r	.	2.r	.	2.r	.	4ff\	de-	2.r	2.r
4B-\	4 x	.	4g/	.	4ee-\	.	.	.	.	.	.	.	4ee-\	-i	.	.
4BB-/	x 3	.	4f/	.	4dd\	.	.	.	.	.	.	.	4dd\	Fi-	.	.
=56	=56	=56	=56	=56	=56	=56	=56-	=56	=56-	=56	=56-	=56	=56	=56	=56-	=56-
4E-\	.	.	4g/	.	4ee-\	.	2.r	.	2.r	.	2.r	.	4ee-\	-li-	2.r	2.r
4E-\	.	.	4g/	.	4ee-\	.	.	.	.	.	.	.	4ee-\	-us	.	.
4r	.	.	4r	.	4r	.	.	.	.	.	.	.	4r	.	.	.
!	!	!	!	!	!LO:LB:g=original	!	!	!	!	!	!	!	!	!	!	!
=57	=57	=57	=57	=57	=57	=57	=57-	=57	=57-	=57	=57-	=57	=57	=57	=57-	=57-
!LO:TX:a:t=1.	!	!	!LO:TX:a:t=1.	!	!	!	!	!	!	!	!	!	!	!	!	!
2.r	.	.	2.r	.	8ee-\L	.	2.r	.	2.r	.	2.r	.	8ee-\L	Fi-	2.r	2.r
.	.	.	.	.	8gg\	.	.	.	.	.	.	.	8gg\J	.	.	.
.	.	.	.	.	8ff\	.	.	.	.	.	.	.	8ff\L	-li-	.	.
.	.	.	.	.	8ee-\	.	.	.	.	.	.	.	8ee-\J	.	.	.
.	.	.	.	.	8dd\	.	.	.	.	.	.	.	8dd\L	-us	.	.
.	.	.	.	.	8ee-\J	.	.	.	.	.	.	.	8ee-\J	.	.	.
=58	=58	=58	=58	=58	=58	=58	=58	=58	=58	=58	=58	=58	=58	=58	=58	=58
!LO:TX:a:t=Tutti	!	!	!	!	!	!	!	!	!	!	!	!	!	!	!	!
4B-\	.	.	4g/	.	4ee-\	.	4B-\	pa-	4B-\	pa-	4g\	pa-	4ee-\	pa-	4ee-\	4gg\
4BB-/	x 3	.	4f/	.	4dd\	.	4B-\	-tris	4B-\	-tris	4f\	-tris	4dd\	-tris	4dd\	4ff\
4r	.	.	4r	.	4r	.	4r	.	4r	.	4r	.	4r	.	4r	4r
=59	=59	=59	=59	=59	=59	=59	=59	=59	=59	=59	=59	=59	=59	=59	=59	=59
*	*	*	*	*	*	*	*	*	*	*	*	*	*	*ij	*	*
!LO:TX:a:t=1.	!	!	!LO:TX:a:t=1.	!	!	!	!LO:TX:a:t=1	!	!LO:TX:a:t=1	!	!LO:TX:a:t=1	!	!LO:SIC:v:s:t=8ee-\	!	!LO:TX:a:t=1.	!LO:TX:a:t=1.
2.r	.	.	2.r	.	8ee-\L	.	2.r	.	2.r	.	2.r	.	8dd\L	Fi-	2.r	2.r
.	.	.	.	.	8ff\	.	.	.	.	.	.	.	8ff\J	.	.	.
.	.	.	.	.	8ee-\	.	.	.	.	.	.	.	8ee-\L	-li-	.	.
.	.	.	.	.	8dd\	.	.	.	.	.	.	.	8dd\J	.	.	.
.	.	.	.	.	8gg\	.	.	.	.	.	.	.	8gg\L	-us	.	.
.	.	.	.	.	8ff\J	.	.	.	.	.	.	.	8ff\J	.	.	.
=60	=60	=60	=60	=60	=60	=60	=60	=60	=60	=60	=60	=60	=60	=60	=60	=60
*	*	*	*	*	*	*	*	*ij	*	*ij	*	*ij	*	*	*	*
4E-\	4 x	.	4a-/	.	4ff\	.	4e-\	pa-	4B-\	pa-	4a-\	pa-	4ff\	Pa-	4ff\	4aa-\
!	!	!	!	!	!LO:TX:a:t=60:color=gray	!	!	!	!	!	!	!	!	!	!	!
4EE-/	x 3	.	4g/	.	4ee-\	.	4E-\	-tris	4B-\	-tris	4g\	-tris	4ee-\	-tris	4ee-\	4gg\
4r	.	.	4r	.	4r	.	4r	.	4r	.	4r	.	4r	.	4r	4r
*	*	*	*	*	*	*	*	*Xij	*	*Xij	*	*Xij	*	*Xij	*	*
=61	=61	=61	=61	=61	=61	=61	=61	=61	=61	=61	=61	=61	=61	=61	=61	=61
!	!	!	!	!	!	!	!	!	!	!	!	!	!	!	!LO:TX:a:t=7.	!LO:TX:a:t=7.
4E-\	8: 3:	.	4g/	.	[>2.ee-\	.	4E-\	qui	4g\	qui	4g\	qui	2.ee-\	qui	0.r	0.r
4F\	.	.	4a-/	.	.	.	4F\	.	4f\	.	4a-\	.	.	.	.	.
4G\	.	.	4b-/	.	.	.	4G\	.	4e-\	.	4b-\	.	.	.	.	.
=62	=62	=62	=62	=62	=62	=62	=62	=62	=62	=62	=62	=62	=62	=62	=62-	=62-
!!LO:TX:t=P:problem:w taktach 62-71 jest zbyt mało nut w stosunku do ilości sylab tekstu słownego
[>2.A-\	5 x	.	2.cc\	.	4ee-\]	.	2.A-\	tol-	2.e-\	tollis	2.cc\	tollis	4ee-\	tol-	.	.
.	.	.	.	.	(>8ff\L	.	.	.	.	.	.	.	8ff\L	lis	.	.
.	6 3	.	.	.	8gg\	.	.	.	.	.	.	.	8gg\J	.	.	.
!	!	!	!	!	!	!	!	!	!	!	!	!	!	!LO:MO:P=pec-	!	!
.	5 x	.	.	.	8ff\	.	.	.	.	.	.	.	8ff\L	pe-	.	.
.	.	.	.	.	8ee-\J)	.	.	.	.	.	.	.	8ee-\J	-ca-	.	.
=63	=63	=63	=63	=63	=63	=63	=63	=63	=63	=63	=63	=63	=63	=63	=63-	=63-
4A-\]	.	.	2.b-\	.	2.dd\	.	4A-\	.	2.d\	pec-	2.b-\	pec-	2.dd\	-ta	.	.
4G\	.	.	.	.	.	.	4G\	.	.	.	.	.	.	.	.	.
4F\	.	.	.	.	.	.	4F\	-lis	.	.	.	.	.	.	.	.
=64	=64	=64	=64	=64	=64	=64	=64	=64	=64	=64	=64	=64	=64	=64	=64-	=64-
!	!	!	!	!	!	!	!	!	!	!	!	!	!	!LO:MO:P=pec-	!	!
[>2.G\	5 x	.	2.b-\	.	(>4dd\	.	2.G\	pec-	2.e-\	-cata	2.b-\	-cata	4dd\	pe-	.	.
!	!	!	!	!	!	!	!	!	!	!	!	!	!LO:LB:g=original	!	!	!
.	.	.	.	.	8ee-\L	.	.	.	.	.	.	.	8ee-\L	-ca-	.	.
.	6 3	.	.	.	8ff\	.	.	.	.	.	.	.	8ff\J	.	.	.
.	5 x	.	.	.	8ee-\)	.	.	.	.	.	.	.	8ee-\L	-ta	.	.
.	.	.	.	.	8dd\J	.	.	.	.	.	.	.	8dd\J	.	.	.
=65	=65	=65	=65	=65	=65	=65	=65	=65	=65	=65	=65	=65	=65	=65	=65-	=65-
*	*	*	*	*	*	*	*	*	*	*ij	*	*ij	*	*	*	*
4G\]	4: 2:	.	2.a-/	.	2.cc\	.	4G\	-ca-	2.c\	peccata	2.a-\	peccata	2.cc\	mun-	1.r	1.r
4F\	.	.	.	.	.	.	4F\	.	.	.	.	.	.	.	.	.
4E-\	.	.	.	.	.	.	4E-\	-ta	.	.	.	.	.	.	.	.
*	*	*	*	*	*	*	*	*	*	*Xij	*	*Xij	*	*	*	*
=66	=66	=66	=66	=66	=66	=66	=66	=66	=66	=66	=66	=66	=66	=66	=66-	=66-
2.F\	5 x	.	2.a-/	.	4cc\	.	2.F\	mun-	2.d\	mun-	2.a-\	mun-	4cc\	-di	.	.
*	*	*	*	*	*	*	*	*	*	*	*	*	*	*ij	*	*
!	!	!	!	!	!	!	!	!	!	!	!	!	!	!LO:MO:P=pec-	!	!
.	.	.	.	.	8dd\L	.	.	.	.	.	.	.	8cc\L	pe-	.	.
.	6 3	.	.	.	8ee-\	.	.	.	.	.	.	.	8ee-\J	-ca-	.	.
.	.	.	.	.	8dd\	.	.	.	.	.	.	.	8dd\L	-ta	.	.
.	5 x	.	.	.	8cc\J	.	.	.	.	.	.	.	8cc\J	mun-	.	.
!LO:LB:g=original	!	!	!	!	!LO:LB:g=original	!	!	!	!LO:LB:g=original	!	!	!	!	!	!	!
=67	=67	=67	=67	=67	=67	=67	=67	=67	=67	=67	=67	=67	=67	=67	=67-	=67-
!	!	!	!	!	!	!	!	!	!	!	!LO:TX:b:t=Verte	!	!	!	!	!
4F\	4: 2:	.	2.g/	.	[>2.b-\	.	4F\	.	2.B-\	-di	2.g\	-di	2.b-\	-di	2.r	2.r
4E-\	.	.	.	.	.	.	4E-\	.	.	.	.	.	.	.	.	.
4D\	.	.	.	.	.	.	4D\	-di	.	.	.	.	.	.	.	.
*	*	*	*	*	*	*	*	*	*	*	*	*	*	*Xij	*	*
!	!	!	!	!	!	!	!LO:LB:g=original	!	!	!	!	!LO:PB:g=original	!	!	!LO:LB:g=original	!
=68	=68	=68	=68	=68	=68	=68	=68	=68	=68	=68	=68	=68	=68	=68	=68	=68
*	*	*	*	*	*	*	*	*	*	*ij	*	*	*	*	*	*
2.E-\	5 3	.	4g/	.	4b-\]	.	2.E-\	miſe-	2.B-\	mundi	4g\	mi-	4b-\	mi-	4r	4r
.	.	.	8a-/L	.	8cc\L	.	.	.	.	.	8cc\L	-ſe-	8aa-\L	.	4ee-\	4gg\
.	.	.	8g/	.	8b-\	.	.	.	.	.	8b-\	.	8gg\J	-ſe-	.	.
.	.	.	8f/	.	8a-\	.	.	.	.	.	8a-\	-re-	8ff\L	-re-	4ee-\	4gg\
.	.	.	8e-/J	.	8g\J	.	.	.	.	.	8g\J	-re	8ee-\J	-[re]	.	.
*	*	*	*	*	*	*	*	*	*	*Xij	*	*	*	*	*	*
!	!	!	!LO:LB:g=original	!	!	!	!	!	!	!	!	!	!	!	!	!LO:LB:g=original
=69	=69	=69	=69	=69	=69	=69	=69	=69	=69	=69	=69	=69	=69	=69	=69	=69
*	*	*	*	*	*	*	*	*	*	*	*	*ij	*	*ij	*	*
!	!	!	!	!	!	!	!	!LO:MO:P=-rere	!	!	!	!	!	!	!	!
2B-\	6 4	.	4e-/	.	4g/	.	2.B-\	-rer[e]	2.B-\	miſe-	4g\	mi-	4ee-\	mi-	4ee-\	4gg\
.	.	.	8d/L	.	8f/L	.	.	.	.	.	8f\L	-ſe-	8dd\L	-ſe-	8dd\L	8ff\L
.	.	.	8e-/J	.	8g/J	.	.	.	.	.	8g\J	-re-	8ee-\J	-re-	8ee-\J	8gg\J
4BB-/	7: 5:	.	4f/	.	[<4a-/	.	.	.	.	.	4a-\	-re	4ff\	.	4ff\	4aa-\
*	*	*	*	*	*	*	*	*	*	*	*	*Xij	*	*Xij	*	*
=70	=70	=70	=70	=70	=70	=70	=70	=70	=70	=70	=70	=70	=70	=70	=70	=70
*	*	*	*	*	*	*	*	*ij	*	*	*	*ij	*	*ij	*	*
!	!	!	!	!	!	!	!	!	!LO:TX:a:t=P:problem=brak taktu w źródle	!	!	!	!	!	!	!
2E-\	.	.	4f/	.	4a-/]	.	2.E-\	miſe-	2.r	.	4a-\	mi-	4ff\	-[re]	4ff\	4aa-\
!	!	!	!	!	!LO:TX:a:t=70:color=gray	!	!	!	!	!	!	!	!	!	!	!
.	.	.	8e-/L	.	8g/L	.	.	.	.	.	8g\L	.	8ee-\L	mi-	8ee-\L	8gg\L
.	.	.	8f/J	.	8a-/J	.	.	.	.	.	8a-\J	.	8ff\J	.	8ff\J	8aa-\J
4EE-/	X 5	.	4g/	.	4b-/	.	.	.	.	.	4b-\	-ſe-	4gg\	-ſe-	4gg\	4bb-\
=71	=71	=71	=71	=71	=71	=71	=71	=71	=71	=71	=71	=71	=71	=71	=71	=71
4AA-/	X 6	.	4f/	.	4a-/	.	4A-\	-rer[e]	4c\	-re-	4a-\	.	4ff\	-re-	4ff\	4aa-\
*	*	*	*	*	*	*	*	*Xij	*	*	*	*	*	*	*	*
*	*	*	*	*	*	*	*	*ij	*	*	*	*	*	*	*	*
4BB-/	X 4	.	4e-/	.	4g/	.	4B-\	miſe-	4B-\	-re	4g\	-re-	4ee-\	.	4ee-\	4gg\
*	*	*	*	*	*	*	*	*	*	*ij	*	*	*	*	*	*
!	!	!	!	!	!	!	!	!LO:MO:P=-rere	!	!	!	!	!	!	!	!
4BB-/	X 3	.	4d/	.	4f/	.	4BB-/	-rer[e]	4B-\	miſerere	4f\	-re	4dd\	-[re]	4dd\	4ff\
*	*	*	*	*	*	*	*	*Xij	*	*Xij	*	*Xij	*	*Xij	*	*
=72	=72	=72	=72	=72	=72	=72	=72	=72	=72	=72	=72	=72	=72	=72	=72	=72
!	!	!LO:DY:a:t=p.	!	!	!	!	!	!	!	!	!	!	!	!	!LO:TX:a:t=Solo	!LO:TX:a:t=Solo:rj
4E-\	.	p	4e-/	.	4g/	.	4E-\	no-	4B-\	no-	4g\	no-	4ee-\	no-	4ee-\	4gg\
4E-\	.	.	4e-/	.	4g/	.	4E-\	-bis	4B-\	-bis	4g\	-bis	4ee-\	-bis	8r	8r
.	.	.	.	.	.	.	.	.	.	.	.	.	.	.	8ee-\L	8gg\L
4r	.	.	4r	.	4r	.	4r	.	4r	.	4r	.	4r	.	8ff\	(>8aa-\
.	.	.	.	.	.	.	.	.	.	.	.	.	.	.	8ff#X\J	8aa\J)
=73	=73	=73	=73	=73	=73	=73	=73	=73	=73	=73	=73	=73	=73	=73	=73	=73
!LO:TX:a:t=P:problem=takt 73 zapisany repetycją	!	!	!	!	!	!	!LO:TX:a:t=6	!	!LO:TX:a:t=6	!	!LO:TX:a:t=6	!	!LO:TX:a:t=6	!	!	!
4E-\yy	.	.	4f/	.	4b-\	.	0.r	.	0.r	.	0.r	.	0.r	.	8.gg\L	8.bb-\L
.	.	.	.	.	.	.	.	.	.	.	.	.	.	.	16ff#X\Jk	16aa\Jk
!	!	!	!	!LO:DY:a:t=piano	!	!	!	!	!	!	!	!	!	!	!	!
4E-\yy	.	.	4f/	p	4b-\	.	.	.	.	.	.	.	.	.	8ff\L	8aa-X\L
.	.	.	.	.	.	.	.	.	.	.	.	.	.	.	8dd\	8ff\
4ryy	.	.	4r	.	4r	.	.	.	.	.	.	.	.	.	8ee-\	8gg\
.	.	.	.	.	.	.	.	.	.	.	.	.	.	.	8ff\J	8bb-\J
=74	=74	=74	=74	=74	=74	=74	=74-	=74	=74-	=74	=74-	=74	=74-	=74	=74	=74
!	!	!	!LO:TX:a:t=P:problem=brak taktu-powininen byc powtórzony takt żeby sie zgadzało z violino primo	!	!	!	!	!	!	!	!	!	!	!	!	!
4D\	.	.	4f/yy	.	4b-\	.	.	.	.	.	.	.	.	.	8.gg\L	8.bb-\L
.	.	.	.	.	.	.	.	.	.	.	.	.	.	.	16ff\Jk	16aa-\Jk
4D\	.	.	4f/yy	.	4b-\	.	.	.	.	.	.	.	.	.	8ee-\L	8gg\L
.	.	.	.	.	.	.	.	.	.	.	.	.	.	.	8ee-\	8gg\
4r	.	.	4ryy	.	4r	.	.	.	.	.	.	.	.	.	8dd\	8ff#X\
.	.	.	.	.	.	.	.	.	.	.	.	.	.	.	8eeX\J	8gg\J
=75	=75	=75	=75	=75	=75	=75	=75-	=75	=75-	=75	=75-	=75	=75-	=75	=75	=75
2.AA-/	.	.	2.c/	.	2.f/	.	.	.	.	.	.	.	.	.	8ff\L	(>8aa-\L
.	.	.	.	.	.	.	.	.	.	.	.	.	.	.	8eeX\	8gg\
.	.	.	.	.	.	.	.	.	.	.	.	.	.	.	8ff\	8aa-\
.	.	.	.	.	.	.	.	.	.	.	.	.	.	.	8ee\	8gg\)
!	!	!	!	!	!	!	!	!	!	!	!	!	!	!	!LO:SIC:v:s:t=8ff	!
.	.	.	.	.	.	.	.	.	.	.	.	.	.	.	8ff#X\	8ff\
.	.	.	.	.	.	.	.	.	.	.	.	.	.	.	8ee\J	8ee-\J
=76	=76	=76	=76	=76	=76	=76	=76-	=76	=76-	=76	=76-	=76	=76-	=76	=76	=76
4BB-/	.	.	4d/	.	4f/	.	.	.	.	.	.	.	.	.	8dd\L	(>8ffn\L
.	.	.	.	.	.	.	.	.	.	.	.	.	.	.	8cc\	8ee-\
4r	.	.	4r	.	4r	.	.	.	.	.	.	.	.	.	8b-\	8dd\
.	.	.	.	.	.	.	.	.	.	.	.	.	.	.	8a-\	8cc\)
4r	.	.	4r	.	4r	.	.	.	.	.	.	.	.	.	8g\	8b-\
.	.	.	.	.	.	.	.	.	.	.	.	.	.	.	8f\J	8a-\J
=77	=77	=77	=77	=77	=77	=77	=77-	=77	=77-	=77	=77-	=77	=77-	=77	=77	=77
!	!	!	!LO:TX:a:t=2	!	!LO:TX:a:t=2.	!	!	!	!	!	!	!	!	!	!	!
4E-\	.	.	1.r	.	1.r	.	1.r	.	1.r	.	1.r	.	1.r	.	4g/	8g\L
.	.	.	.	.	.	.	.	.	.	.	.	.	.	.	.	8b-\
4F\	.	.	.	.	.	.	.	.	.	.	.	.	.	.	4a-/	8cc\
.	.	.	.	.	.	.	.	.	.	.	.	.	.	.	.	8dd\
4G\	6 x	.	.	.	.	.	.	.	.	.	.	.	.	.	4b-/	8ee-\
.	.	.	.	.	.	.	.	.	.	.	.	.	.	.	.	8ff\J
=78	=78	=78	=78-	=78	=78	=78	=78-	=78	=78-	=78	=78-	=78	=78-	=78	=78	=78
4A-\	.	.	.	.	.	.	.	.	.	.	.	.	.	.	4a-/	8aa-\L
.	.	.	.	.	.	.	.	.	.	.	.	.	.	.	.	8ff\J
4B-\	.	.	.	.	.	.	.	.	.	.	.	.	.	.	4g/	4ee-\
4BB-/	.	.	.	.	.	.	.	.	.	.	.	.	.	.	4f/	4dd\
!	!	!	!	!	!	!	!	!	!	!	!	!	!LO:LB:g=original	!	!LO:LB:g=original	!
=79	=79	=79	=79	=79	=79	=79	=79	=79	=79	=79	=79	=79	=79	=79	=79	=79
!LO:TX:a:t=|:problem	!	!	!	!	!	!	!	!	!	!	!	!	!	!	!	!
!LO:TX:a:t=Tutti	!	!	!	!	!	!	!	!	!	!	!	!	!	!	!	!
4E-\	.	.	4e-/	f	4ee-\	.	4E-\	Quo-	4E-/	Quo-	4e-\	Quo-	4ee-\	Quo-	4g/	4ee-\
!LO:TX:a:t=|:problem	!	!	!	!	!	!	!	!	!	!	!	!	!	!	!	!
4G\	.	.	4g/	.	4gg\	.	4G\	.	4G/	.	4g\	.	4gg\	.	4r	4r
!LO:TX:a:t=|:problem	!	!	!	!	!	!	!	!	!	!	!	!	!	!	!	!
4B-\	.	.	4b-/	.	4bb-\	.	4B-\	.	4B-\	-ni-	4b-\	-ni-	4bb-\	.	4r	4r
!LO:LB:g=original	!	!	!	!	!LO:LB:g=original	!	!	!	!	!	!	!	!	!	!	!LO:PB:g=original
=80	=80	=80	=80	=80	=80	=80	=80	=80	=80	=80	=80	=80	=80	=80	=80	=80
!	!	!	!	!	!	!	!	!	!	!	!	!	!	!	!LO:TX:a:t=1.	!LO:TX:a:t=1.
4G\	.	.	4g/	.	4gg\	.	4G\	-ni-	4G/	-am	4g\	.	4gg\	-niam	2.r	2.r
!	!	!	!	!	!LO:TX:a:t=80:color=gray	!	!	!	!	!	!	!	!	!	!	!
4E-\	.	.	4e-/	.	4ee-\	.	4E-\	-am	4E-/	.	4e-\	-am	4ee-\	.	.	.
4r	.	.	4r	.	4r	.	4r	.	4r	.	4r	.	4r	.	.	.
=81	=81	=81	=81	=81	=81	=81	=81	=81	=81	=81	=81	=81	=81	=81	=81	=81
!	!	!	!	!	!	!	!LO:TX:a:t=2	!	!LO:TX:a:t=2	!	!LO:TX:a:i:t=Solo:rj	!	!LO:TX:a:t=Solo:rj	!	!LO:TX:a:t=Solo	!LO:TX:a:t=Solo
4E-\	.	.	4g/	p	4b-/	.	1.r	.	1.r	.	4b-\	tu	4gg\	tu	4gg\	4bb-\
4A-\	6 x	.	4f/	.	4a-/	.	.	.	.	.	4a-\	ſo-	4ff\	ſo-	4ff\	4aa-\
4An\	.	.	4e-/	.	4g/	.	.	.	.	.	4g\	-lus	4ee-\	-lus	4ee-\	4gg\
!	!	!	!	!	!	!	!	!	!	!	!LO:LB:g=original	!	!	!	!	!
=82	=82	=82	=82	=82	=82	=82	=82-	=82	=82-	=82	=82	=82	=82	=82	=82	=82
4B-\	5 x	.	4e-/	.	4g/	.	.	.	.	.	4g\	ſanc-	4ee-\	ſanc-	4ee-\	4gg\
4BB-/	.	.	4d/	.	4f/	.	.	.	.	.	4f\	-tus	4dd\	-t(us)	4dd\	4ff\
4r	.	.	4r	.	4r	.	.	.	.	.	4r	.	4r	.	4r	4r
!	!	!	!LO:LB:g=original	!	!	!	!	!	!	!	!	!	!	!	!	!
=83	=83	=83	=83	=83	=83	=83	=83	=83	=83	=83	=83	=83	=83	=83	=83	=83
!	!	!LO:DY:a:rj:t=for	!	!	!	!	!	!	!	!	!	!	!	!	!LO:TX:a:t=2	!LO:TX:a:t=2.
4BB-/	.	f	4B-/	.	4b-\	.	4BB-/	tu	4B-\	tu	4B-\	tu	4b-\	tu-	1.r	1.r
4D/	.	.	4d/	.	4dd\	.	4D\	.	4d\	.	4d\	.	4dd\	.	.	.
4F\	.	.	4f/	.	4ff\	.	4F\	.	4f\	.	4f\	.	4ff\	-tis	.	.
=84	=84	=84	=84	=84	=84	=84	=84	=84	=84	=84	=84	=84	=84	=84	=84-	=84-
4D/	.	.	4d/	.	4dd\	.	4D/	ſo-	4d\	ſo-	4d\	ſo-	4dd\	ſo-	.	.
4BB-/	.	.	4B-/	.	4b-\	.	4BB-/	-lus	4B-\	-lus	4B-/	-lus	4b-\	-lus	.	.
4r	.	.	4r	.	4r	.	4r	.	4r	.	4r	.	4r	.	.	.
=85	=85	=85	=85	=85	=85	=85	=85	=85	=85	=85	=85	=85	=85	=85	=85	=85
!	!	!	!	!	!	!	!LO:TX:a:t=P:problem=dopisany jeden pusty takt	!	!	!	!	!	!	!	!	!
!	!	!	!	!	!	!	!LO:TX:a:t=1	!	!LO:TX:a:t=1	!	!LO:TX:a:i:t=Solo:rj	!	!	!	!	!
2.BB-/	5 3	.	4d/	p	4f/	.	2.r	.	2.r	.	(>4f\	al-	4dd\	al-	4dd\	4ff\
.	6 4	.	4e-/	.	4g/	.	.	.	.	.	4g\)	-tiſ-	4ee-\	-tiſ-	4ee-\	4gg\
.	-7: 3:	.	4f/	.	4a-/	.	.	.	.	.	4a-\	-si-	4ff\	.	4ff\	4aa-\
=86	=86	=86	=86	=86	=86	=86	=86	=86	=86	=86	=86	=86	=86	=86	=86	=86
4E-\	.	.	4f/	.	4a-/	.	4r	.	4r	.	4a-\	.	4ff\	-si-	4ff\	4aa-\
4EE-/	X 3	.	4e-/	.	4g/	.	4r	.	4r	.	4g\	-mus	4ee-\	-mus	4ee-\	4gg\
!	!	!	!	!	!	!	!	!	!LO:TX:t=P:problem=zbyt mała liczba nut w stosunku do sylab	!	!	!	!	!	!	!
4r	.	.	8r	.	8r	.	4E-\	al-	4B-\	Jesu	4g\	.	4ee-\	.	4ee-\	4gg\
.	.	.	8e-/	.	8ee-\	.	.	.	.	.	.	.	.	.	.	.
=87	=87	=87	=87	=87	=87	=87	=87	=87	=87	=87	=87	=87	=87	=87	=87	=87
*tremolo	*	*	*	*	*	*	*	*	*	*ij	*	*	*	*	*	*
!	!	!LO:DY:a:t=for	!	!	!	!	!	!	!	!	!	!	!	!	!	!
8E-\L	.	f	4g/	.	4b-/	.	2E-\	-tiſ-	2e-\	Je-	2b-\	Je-	2gg\	Je-	2.gg\	(<2.bb-\
8E-\	.	.	.	.	.	.	.	.	.	.	.	.	.	.	.	.
8E-\	.	.	4e-/	.	4g/	.	.	.	.	.	.	.	.	.	.	.
8E-\	.	.	.	.	.	.	.	.	.	.	.	.	.	.	.	.
8E-\	.	.	8r	.	8r	.	4E-\	-si-	4e-\	-su	4b-\	-su	4gg\	-su	.	.
8E-\J	.	.	8g/	.	8b-\	.	.	.	.	.	.	.	.	.	.	.
*	*	*	*	*	*	*	*	*	*	*Xij	*	*	*	*	*	*
!	!	!	!	!	!	!	!	!	!LO:LB:g=original	!	!	!	!	!	!	!
=88	=88	=88	=88	=88	=88	=88	=88	=88	=88	=88	=88	=88	=88	=88	=88	=88
*	*	*	*	*	*	*	*	*	*	*ij	*	*ij	*	*ij	*	*
8E-\L	x 4	.	4a-\	.	4cc\	.	2E-\	.	2e-\	Je-	2cc\	Je-	2aa-\	Je-	2.aa-\	(<2.ccc\)
8E-\	.	.	.	.	.	.	.	.	.	.	.	.	.	.	.	.
8E-\	.	.	4cc\	.	4ee-\	.	.	.	.	.	.	.	.	.	.	.
8E-\	.	.	.	.	.	.	.	.	.	.	.	.	.	.	.	.
8E-\	.	.	8r	.	8r	.	4E-\	-mus	4e-\	.	4cc\	-su	4aa-\	-su	.	.
8E-\J	.	.	8a-\	.	8cc\	.	.	.	.	.	.	.	.	.	.	.
*	*	*	*	*	*	*	*	*	*	*	*	*Xij	*	*Xij	*	*
=89	=89	=89	=89	=89	=89	=89	=89	=89	=89	=89	=89	=89	=89	=89	=89	=89
*	*	*	*	*	*	*	*	*	*	*	*	*ij	*	*ij	*	*
!	!	!	!	!	!	!	!	!	!	!	!	!	!	!	!LO:N:vis=2.	!
8E-\L	x 3	.	4g/	.	4b-/	.	2E-\	Je-	2e-\	-su	2b-\	Je-	2gg\	Je-	2gg\	(<2.bb-\)
8E-\	.	.	.	.	.	.	.	.	.	.	.	.	.	.	.	.
8E-\	.	.	4e-/	.	4g/	.	.	.	.	.	.	.	.	.	.	.
8E-\	.	.	.	.	.	.	.	.	.	.	.	.	.	.	.	.
8E-\	.	.	8r	.	8r	.	4E-\	-ſu	4e-\	.	4g\	-su	4ee-\	-su	4ee-\	.
8E-\J	.	.	8e-/	.	8g/	.	.	.	.	.	.	.	.	.	.	.
*	*	*	*	*	*	*	*	*	*	*Xij	*	*Xij	*	*Xij	*	*
!	!	!	!	!	!LO:LB:g=original	!	!LO:LB:g=original	!	!	!	!	!	!LO:LB:g=original	!	!	!
=90	=90	=90	=90	=90	=90	=90	=90	=90	=90	=90	=90	=90	=90	=90	=90	=90
!	!	!	!	!	!	!	!LO:TX:t=P:problem=zbyt mała liczba nut w stosunku do sylab	!	!	!	!	!	!	!	!	!
*	*	*	*	*	*	*	*	*ij	*	*	*	*	*	*	*	*
8BB-/L	x 3	.	4d/	.	4f/	.	2.B-\	Jeſu	4f\	Chri-	4f\	Chri-	4dd\	Chri-	4dd\	4ff\)
8BB-/	.	.	.	.	.	.	.	.	.	.	.	.	.	.	.	.
!	!	!	!	!	!LO:TX:a:t=90:color=gray	!	!	!	!	!	!	!	!	!	!	!
8BB-/	x 4	.	4e-/	.	4g/	.	.	.	4e-\	.	4g\	.	4ee-\	.	4ee-\	4gg\
8BB-/	.	.	.	.	.	.	.	.	.	.	.	.	.	.	.	.
8BB-/	x 5	.	4f/	.	4a-/	.	.	.	4d\	.	4a-\	.	4ff\	.	4ff\	4aa-\
8BB-/J	.	.	.	.	.	.	.	.	.	.	.	.	.	.	.	.
*	*	*	*	*	*	*	*	*Xij	*	*	*	*	*	*	*	*
=91	=91	=91	=91	=91	=91	=91	=91	=91	=91	=91	=91	=91	=91	=91	=91	=91
*	*	*	*	*	*	*	*	*ij	*	*	*	*	*	*	*	*
8E-\L	x 3	.	4e-/	.	4g/	.	2E-\	Je-	2e-\	-ſte	2g\	-ſte	2ee-\	-ſte	4ee-\	4gg\
8E-\	.	.	.	.	.	.	.	.	.	.	.	.	.	.	.	.
!	!	!	!	!	!	!	!	!	!	!	!	!	!	!	!	!LO:SIC:v:s:t=4gg\
8E-\	.	.	4g/	.	4b-/	.	.	.	.	.	.	.	.	.	4gg\	4aa-\
8E-\	.	.	.	.	.	.	.	.	.	.	.	.	.	.	.	.
8E-\	.	.	8r	.	8r	.	4E-\	-ſu	4e-\	.	4b-\	Cum	4gg\	Cum	4gg\	(<4bb-\
8E-\J	.	.	8g/	.	8b-/	.	.	.	.	.	.	.	.	.	.	.
*	*	*	*	*	*	*	*	*Xij	*	*	*	*	*	*	*2\left	*
!LO:LB:g=original	!	!	!	!	!	!	!	!	!	!	!	!	!	!	!	!
=92	=92	=92	=92	=92	=92	=92	=92	=92	=92	=92	=92	=92	=92	=92	=92	=92
8E-\L	x 4	.	4a-/	.	4cc\	.	2.E-\	Chri-	2e-\	Cum	2cc\	ſan-	2aa-\	.	2.aa-\	(<2.ccc\)
8E-\	.	.	.	.	.	.	.	.	.	.	.	.	.	.	.	.
8E-\	.	.	4cc/	.	4ee-\	.	.	.	.	.	.	.	.	.	.	.
8E-\	.	.	.	.	.	.	.	.	.	.	.	.	.	.	.	.
8E-\	.	.	8r	.	8r	.	.	.	4e-\	.	4cc\	.	4aa-\	ſan-	.	.
8E-\J	.	.	8a-\	.	8cc\	.	.	.	.	.	.	.	.	.	.	.
!	!	!	!LO:LB:g=original	!	!	!	!	!	!	!	!	!	!	!	!	!
=93	=93	=93	=93	=93	=93	=93	=93	=93	=93	=93	=93	=93	=93	=93	=93	=93
8E-\L	.	.	4g/	.	4b-\	.	2E-\	-ſte	2e-\	.	2b-\	-cto	2gg\	-cto	2.gg\	(<2.bb-\)
8E-\	.	.	.	.	.	.	.	.	.	.	.	.	.	.	.	.
8E-\	.	.	4e-/	.	4g\	.	.	.	.	.	.	.	.	.	.	.
8E-\	.	.	.	.	.	.	.	.	.	.	.	.	.	.	.	.
*	*	*	*	*	*	*	*	*ij	*	*	*	*	*	*	*	*
8E-\	.	.	8r	.	8r	.	4E-\	Chri-	4e-\	ſan-	4b-\	.	4gg\	ſpi-	.	.
8E-\J	.	.	8g/	.	8b-\	.	.	.	.	.	.	.	.	.	.	.
*Xtremolo	*	*	*	*	*	*	*	*	*	*	*	*	*	*	*	*
!	!	!	!	!	!	!	!	!	!	!	!LO:LB:g=original	!	!	!	!	!
=94	=94	=94	=94	=94	=94	=94	=94	=94	=94	=94	=94	=94	=94	=94	=94	=94
8A-\L	.	.	4f/	.	4a-/	.	4A-\	.	4c\	-cto	4a-\	ſpi-	4ff\	-ri-	4ff\	4aa-\)
8A-\J	6 x	.	.	.	.	.	.	.	.	.	.	.	.	.	.	.
8B-\L	.	.	4e-/	.	4g/	.	4B-\	.	2B-\	.	4g\	.	4ee-\	.	4ee-\	4gg\
8B-\J	4 x	.	.	.	.	.	.	.	.	.	.	.	.	.	.	.
8BB-/L	3 x	.	4d/	.	4f/	.	4C/	-ſte	.	.	4f\	-ri-	4dd\	.	4dd\	4ff\
8BB-/J	.	.	.	.	.	.	.	.	.	.	.	.	.	.	.	.
*	*	*	*	*	*	*	*	*Xij	*	*	*	*	*	*	*	*
=95	=95	=95	=95	=95	=95	=95	=95	=95	=95	=95	=95	=95	=95	=95	=95	=95
!	!	!	!	!	!	!	!	!	!LO:TX:t=P:problem=zbyt mała liczba nut w stosunku do sylab	!	!	!	!	!	!	!
4E-\	.	.	4e-/	.	4g/	.	4E-\	.	4B-\	ſpiritu	4g\	-tu	4ee-\	-tu	4ee-\	4gg\
!	!	!	!	!	!	!	!	!	!	!	!	!	!	!	!LO:TX:a:t=Solo	!
4r	.	.	4r	.	4r	.	4r	.	4r	.	4r	.	4r	.	8ee-\L	(>8gg\L
.	.	.	.	.	.	.	.	.	.	.	.	.	.	.	8dd\	8ff#X\
4r	.	.	4r	.	4r	.	4r	.	4r	.	4r	.	4r	.	8ee-\	8gg\
.	.	.	.	.	.	.	.	.	.	.	.	.	.	.	8dd\J	8ff#\J)
!	!	!	!	!	!	!	!	!	!	!	!	!	!	!	!	!LO:LB:g=original
=96	=96	=96	=96	=96	=96	=96	=96	=96	=96	=96	=96	=96	=96	=96	=96	=96
4r	.	.	4r	.	4r	.	4r	.	4r	.	4r	.	4r	.	(>8ee-\L	(>8gg\L
.	.	.	.	.	.	.	.	.	.	.	.	.	.	.	8dd\	8ff\
4r	.	.	4r	.	4r	.	4r	.	4r	.	4r	.	4r	.	8cc\	8ee-\
.	.	.	.	.	.	.	.	.	.	.	.	.	.	.	8b-\	8dd\
4E-\	.	.	4e-/	.	4g/	.	4E-\	glo-	4B-\	glo-	4g\	glo-	4ee-\	glo-	8a-\)	8cc\)
.	.	.	.	.	.	.	.	.	.	.	.	.	.	.	8g\J	8b-\J
!	!	!	!	!	!	!	!	!	!	!	!	!	!	!	!LO:LB:g=original	!
=97	=97	=97	=97	=97	=97	=97	=97	=97	=97	=97	=97	=97	=97	=97	=97	=97
4B-\	.	.	4d/	.	4f/	.	4B-\	-ri-	4B-\	-ri-	4f\	-ri-	4dd\	-ri-	4f/	4a-\
4BB-/	.	.	4d/	.	4f/	.	4BB-/	-a	4B-\	-a	4f\	-a	4dd\	-a	8dd\L	8ff\L
.	.	.	.	.	.	.	.	.	.	.	.	.	.	.	8cc#X\	8eeX\
4r	.	.	4r	.	4r	.	4r	.	4r	.	4r	.	4r	.	8dd\	8ff\
.	.	.	.	.	.	.	.	.	.	.	.	.	.	.	8cc#\J	8ee\J
=98	=98	=98	=98	=98	=98	=98	=98	=98	=98	=98	=98	=98	=98	=98	=98	=98
4r	.	.	4r	.	4r	.	4r	.	4r	.	4r	.	4r	.	8dd\L	(>8ff\L
.	.	.	.	.	.	.	.	.	.	.	.	.	.	.	8ccnX\	8ee-X\
4r	.	.	4r	.	4r	.	4r	.	4r	.	4r	.	4r	.	8b-\	8dd\
.	.	.	.	.	.	.	.	.	.	.	.	.	.	.	8a-\J	8cc\
4BB-/	.	.	4d/	.	4f/	.	4BB-/	De-	4B-\	De-	4f\	De-	4dd\	De-	8g\L	8b-\)
.	.	.	.	.	.	.	.	.	.	.	.	.	.	.	8f\J	8a-\J
=99	=99	=99	=99	=99	=99	=99	=99	=99	=99	=99	=99	=99	=99	=99	=99	=99
4E-\	.	.	4e-/	f	4g/	.	4E-\	-i	4B-\	-i	4g\	-i	4ee-\	-i	8f/L	8a-\L
.	.	.	.	.	.	.	.	.	.	.	.	.	.	.	8f/J	8g\J
4EE-/	.	.	4e-/	.	4g/	.	4E-\	pa-	4B-\	pa-	4g\	pa-	4ee-\	pa-	4e-/	4g\
!	!	!	!	!	!	!LO:DY:b:t=forte	!	!	!	!	!	!	!	!	!	!
4EE-/	.	.	8g/L	.	8b-/L	f	4E-\	.	4e-\	.	4g\	.	4b-\	.	4g/	4b-\
.	.	.	16f/L	.	16a-/L	.	.	.	.	.	.	.	.	.	.	.
.	.	.	16g/JJ	.	16b-/JJ	.	.	.	.	.	.	.	.	.	.	.
!	!	!	!	!	!LO:LB:g=original	!	!	!	!	!	!	!	!	!	!	!
=100	=100	=100	=100	=100	=100	=100	=100	=100	=100	=100	=100	=100	=100	=100	=100	=100
*tremolo	*	*	*	*	*	*	*	*	*	*	*	*	*	*	*	*
8E-\L	6 4	.	4a-/	.	4cc\	.	2E-\	-tris	2e-\	-tris	2a-\	tris	2cc\	-tris	2a-/	2cc\
8E-\	.	.	.	.	.	.	.	.	.	.	.	.	.	.	.	.
8E-\	.	.	4cc\	.	4aa-\	.	.	.	.	.	.	.	.	.	.	.
8E-\	7 2	.	.	.	.	.	.	.	.	.	.	.	.	.	.	.
.	.	.	.	.	8qqee-/	.	.	.	.	.	.	.	.	.	.	.
!	!	!	!	!	!LO:TX:a:t=100:color=gray	!	!	!	!	!	!	!	!	!	!	!
8E-\	.	.	4f/	.	8dd\L	.	4E-\	.	4e-\	.	4f\	a-	4dd\	a-	4f/	4dd\
8E-\J	.	.	.	.	16cc\L	.	.	.	.	.	.	.	.	.	.	.
.	.	.	.	.	16dd\JJ	.	.	.	.	.	.	.	.	.	.	.
!	!	!	!	!	!	!	!	!	!	!	!	!	!LO:LB:g=original	!	!	!
=101	=101	=101	=101	=101	=101	=101	=101	=101	=101	=101	=101	=101	=101	=101	=101	=101
8E-\L	5 3	.	4g/	.	4ee-\	.	2E-\	a-	2e-\	a-	2g\	-men	2ee-\	-men	2g/	2ee-\
8E-\	.	.	.	.	.	.	.	.	.	.	.	.	.	.	.	.
8E-\	.	.	8b-/	.	8gg\	.	.	.	.	.	.	.	.	.	.	.
8E-\	.	.	8r	.	8r	.	.	.	.	.	.	.	.	.	.	.
8E-\	.	.	8g/L	.	8b-\L	.	4E-\	-men	4e-\	-men	4g\	.	4b-\	.	4g/	4dd\
8E-\J	.	.	16f/L	.	16a-\L	.	.	.	.	.	.	.	.	.	.	.
.	.	.	16g/JJ	.	16b-\JJ	.	.	.	.	.	.	.	.	.	.	.
=102	=102	=102	=102	=102	=102	=102	=102	=102	=102	=102	=102	=102	=102	=102	=102	=102
*	*	*	*	*	*	*	*	*ij	*	*	*	*	*	*	*	*
8E-\L	6 4	.	4a-/	.	4cc\	.	2.E-\	a-	2.e-\	a-	2a-\	a-	2cc\	a-	2a-/	2cc\
8E-\	.	.	.	.	.	.	.	.	.	.	.	.	.	.	.	.
!	!	!	!LO:TX:a:t=P:4\right:problem	!	!	!	!	!	!	!	!	!	!	!	!	!
8E-\	.	.	4cc\	.	4aa-\	.	.	.	.	.	.	.	.	.	.	.
8E-\	7 2	.	.	.	.	.	.	.	.	.	.	.	.	.	.	.
.	.	.	.	.	8qqee-/	.	.	.	.	.	.	.	.	.	.	.
8E-\	.	.	4f/	.	8dd\L	.	.	.	.	.	4f\	-men	4dd\	.	4f/	4dd\
8E-\J	.	.	.	.	16cc\L	.	.	.	.	.	.	.	.	.	.	.
.	.	.	.	.	16dd\JJ	.	.	.	.	.	.	.	.	.	.	.
*Xtremolo	*	*	*	*	*	*	*	*	*	*	*	*	*	*	*	*
!	!	!	!	!	!	!	!	!	!LO:LB:g=original	!	!	!	!	!	!	!
=103	=103	=103	=103	=103	=103	=103	=103	=103	=103	=103	=103	=103	=103	=103	=103	=103
!	!	!	!	!	!LO:TX:a:t=P:4\right:problem	!	!	!	!	!	!	!	!	!	!	!
4E-\	5 3	.	4g/	.	4ee-\	.	4E-\	-men	4e-\	-men	4g\	.	4ee-\	-men	4g/	4ee-\
*	*	*	*	*	*	*	*	*Xij	*	*	*	*	*	*	*	*
4E-\	.	.	4g\ 4ee-\	.	4e-/ 4b-/ 4gg/	.	4r	.	4r	.	4r	.	4r	.	4g/	4ee-\
4E-\	.	.	4g\ 4ee-\	.	4e-/ 4b-/ 4gg/	.	4r	.	4r	.	4r	.	4r	.	4g/	4ee-\
=104	=104	=104	=104	=104	=104	=104	=104	=104	=104	=104	=104	=104	=104	=104	=104	=104
!	!	!	!	!	!	!	!	!	!	!	!LO:TX:a:t=1.	!	!LO:TX:a:t=1.	!	!	!
2E-\	.	.	4g\ 4ee-\	.	4e-/ 4b-/ 4gg/	.	2.r	.	2.r	.	2.r	.	2.r	.	4g/	4ee-\
.	.	.	2r	.	2r	.	.	.	.	.	.	.	.	.	4r	4r
4r	.	.	.	.	.	.	.	.	.	.	.	.	.	.	4r	4r
==	==	==	==	==	==	==	==	==	==	==	==	==	==	==	==	==
*-	*-	*-	*-	*-	*-	*-	*-	*-	*-	*-	*-	*-	*-	*-	*-	*-
!!!system-decoration: [(g1)][(g2)][(g3)]g4
!!!RDF**kern: > = above
!!!RDF**kern: < = below
!!!ENC: Anastazja Marusiak
!!!END: 2020-07-16
!!!EED: Jędrzej Mróz
!!!EEV: 2022-01-17
!!!YEC: Copyright 2022 Narodowy Instytut Fryderyka Chopina (https://polishscores.org)
!!!YEM: License CC-BY-4.0 (https://creativecommons.org/licenses/by/4.0)
